src/img/icons/attach.svg

<svg width="32" height="32" viewBox="0 0 32 32" fill="none" xmlns="http://www.w3.org/2000/svg">
<path d="M24.0796 21.4405C24.0796 23.8251 23.2518 25.8479 21.5961 27.5087C19.9404 29.1696 17.925 30 15.5499 30C13.1776 30 11.1595 29.1696 9.49568 27.5087C7.83189 25.8479 7 23.8251 7 21.4405V8.01189C7 6.34196 7.58382 4.92256 8.75147 3.75368C9.91912 2.58456 11.3341 2 12.9964 2C14.6587 2 16.0761 2.58456 17.2484 3.75368C18.4207 4.92256 19.0068 6.34196 19.0068 8.01189V20.732C19.0068 21.6892 18.6726 22.5073 18.004 23.1864C17.3357 23.8658 16.518 24.2055 15.5511 24.2055C14.5964 24.2055 13.778 23.8678 13.0959 23.1923C12.4138 22.5171 12.0728 21.697 12.0728 20.732V8.72037C12.0728 8.45805 12.1619 8.23823 12.3403 8.06089C12.5188 7.88332 12.7399 7.79453 13.0034 7.79453C13.2672 7.79453 13.4867 7.88332 13.6618 8.06089C13.8369 8.23823 13.9245 8.45805 13.9245 8.72037V20.732C13.9245 21.1798 14.0819 21.5619 14.3968 21.8785C14.7117 22.1954 15.0963 22.3538 15.5507 22.3538C16.008 22.3538 16.3897 22.1954 16.6957 21.8785C17.002 21.5619 17.1552 21.1798 17.1552 20.732V7.99789C17.1502 6.84277 16.7474 5.8629 15.9467 5.05826C15.146 4.25388 14.163 3.85168 12.9975 3.85168C11.8368 3.85168 10.8555 4.25547 10.0538 5.06305C9.25216 5.87088 8.85132 6.85382 8.85132 8.01189V21.4405C8.8464 23.3116 9.49703 24.8972 10.8032 26.1975C12.1094 27.4981 13.6946 28.1483 15.5588 28.1483C17.4127 28.1483 18.9867 27.4966 20.2808 26.1931C21.5752 24.8894 22.2243 23.3052 22.2279 21.4405V8.72037C22.2279 8.45805 22.3172 8.23823 22.4958 8.06089C22.6741 7.88332 22.895 7.79453 23.1586 7.79453C23.4224 7.79453 23.6418 7.88332 23.8169 8.06089C23.9921 8.23823 24.0796 8.45805 24.0796 8.72037V21.4405Z" fill="#131212"/>
</svg>

<svg xmlns="http://www.w3.org/2000/svg" viewBox="0 0 32 32">
  <path fill="currentColor" d="M24.08 21.44c0 2.385-.828 4.408-2.484 6.069C19.94 29.169 17.925 30 15.55 30c-2.372 0-4.39-.83-6.054-2.491C7.832 25.848 7 23.825 7 21.44V8.012c0-1.67.584-3.09 1.751-4.258C9.92 2.584 11.334 2 12.996 2c1.663 0 3.08.585 4.252 1.754 1.173 1.169 1.759 2.588 1.759 4.258v12.72a3.37 3.37 0 0 1-1.003 2.454c-.668.68-1.486 1.02-2.453 1.02a3.365 3.365 0 0 1-2.455-1.014 3.332 3.332 0 0 1-1.023-2.46V8.72c0-.262.089-.482.267-.66a.903.903 0 0 1 .663-.265.902.902 0 0 1 .921.926v12.011c0 .448.158.83.473 1.146.315.317.7.476 1.154.476.457 0 .839-.159 1.145-.476.306-.316.46-.698.46-1.146V7.998c-.006-1.155-.409-2.135-1.21-2.94-.8-.804-1.783-1.206-2.948-1.206-1.161 0-2.143.403-2.944 1.211-.802.808-1.203 1.79-1.203 2.949V21.44c-.005 1.872.646 3.457 1.952 4.758 1.306 1.3 2.892 1.95 4.756 1.95 1.854 0 3.428-.651 4.722-1.955 1.294-1.304 1.943-2.888 1.947-4.753V8.72c0-.262.09-.482.268-.66a.902.902 0 0 1 .663-.265.901.901 0 0 1 .921.926v12.72Z"/>
</svg>
